X:0885
T:A Trip to Dunkirk.
M:2/4
L:1/16
Q:1/4=120
I: :: :|
Z:Jack Campin * www.campin.me.uk * 2009
K:G
(dedc) (BcBA)|G2G2`A2B2|c2A2``A2A2 |c2A2`A2A2|\
(dedc) (BcBA)|G2G2`A2B2|c2A2``G2F2 |G4   G4 :|
 F3`A  (cAcA)|G2B2`d2g2|F3`A (cAcA)|G2B2`d2g2|\
 e2e2```g2e2 |c2c2`c2e2|d2c2``B2A2 |G4   G4 :|
<end>
<start>
